src/img/icons/data-submit.svg

<?xml version="1.0" encoding="UTF-8"?>
<svg width="115px" height="104px" viewBox="0 0 115 104" version="1.1" xmlns="http://www.w3.org/2000/svg" xmlns:xlink="http://www.w3.org/1999/xlink">
    <!-- Generator: Sketch 50 (54983) - http://www.bohemiancoding.com/sketch -->
    <title>submit</title>
    <desc>Created with Sketch.</desc>
    <defs></defs>
    <g id="Welcome" stroke="none" stroke-width="1" fill="none" fill-rule="evenodd">
        <g id="1-index-1440" transform="translate(-507.000000, -524.000000)">
            <g id="submit" transform="translate(507.000000, 524.000000)">
                <g id="Group-15">
                    <circle id="Oval" fill="#E7E7E7" fill-rule="nonzero" cx="58.9219406" cy="52.9219406" r="44.9219406"></circle>
                    <rect id="Rectangle-path" fill="#183651" fill-rule="nonzero" x="36.8485981" y="41.7568837" width="42.1598598" height="23.4108837"></rect>
                    <path d="M79.1778411,66.8164419 L36.8485981,66.8164419 C35.832729,66.8164419 35.1554112,66.1569302 35.1554112,65.1677674 L35.1554112,41.7568837 C35.1554112,40.7677209 35.832729,40.1082093 36.8485981,40.1082093 L79.1778411,40.1082093 C80.1937103,40.1082093 80.871028,40.7677209 80.871028,41.7568837 L80.871028,65.1677674 C80.871028,66.1569302 80.0245421,66.8164419 79.1778411,66.8164419 Z M38.541785,63.519093 L77.4846542,63.519093 L77.4846542,43.4055581 L38.541785,43.4055581 L38.541785,63.519093 Z" id="Shape" fill="#183651" fill-rule="nonzero"></path>
                    <rect id="Rectangle-path" fill="#FFFFFF" fill-rule="nonzero" x="43.6213458" y="48.1866512" width="28.6145794" height="10.3866279"></rect>
                    <rect id="Rectangle-path" fill="#183651" fill-rule="nonzero" x="48.1121495" y="51.7209302" width="3.43925234" height="3.34883721"></rect>
                    <rect id="Rectangle-path" fill="#183651" fill-rule="nonzero" x="56.2803738" y="51.7209302" width="3.43925234" height="3.34883721"></rect>
                    <rect id="Rectangle-path" fill="#183651" fill-rule="nonzero" x="64.4485981" y="51.7209302" width="3.43925234" height="3.34883721"></rect>
                    <rect id="Rectangle-path" fill="#05B8EE" fill-rule="nonzero" x="70.8485981" y="9.66155469" width="42.1598598" height="23.5937813"></rect>
                    <path d="M113.177841,34.9168906 L70.8485981,34.9168906 C69.832729,34.9168906 69.1554112,34.2522266 69.1554112,33.2553359 L69.1554112,9.66155469 C69.1554112,8.66466406 69.832729,8 70.8485981,8 L113.177841,8 C114.19371,8 114.871028,8.66466406 114.871028,9.66155469 L114.871028,33.2553359 C114.871028,34.2522266 114.024542,34.9168906 113.177841,34.9168906 Z M72.541785,31.5937813 L111.484654,31.5937813 L111.484654,11.3231094 L72.541785,11.3231094 L72.541785,31.5937813 Z" id="Shape" fill="#183651" fill-rule="nonzero"></path>
                    <rect id="Rectangle-path" fill="#FFFFFF" fill-rule="nonzero" x="77.6213458" y="16.3077734" width="28.6145794" height="10.4677734"></rect>
                    <rect id="Rectangle-path" fill="#183651" fill-rule="nonzero" x="82.1121495" y="19.8125" width="3.43925234" height="3.375"></rect>
                    <rect id="Rectangle-path" fill="#183651" fill-rule="nonzero" x="90.2803738" y="19.8125" width="3.43925234" height="3.375"></rect>
                    <rect id="Rectangle-path" fill="#183651" fill-rule="nonzero" x="98.4485981" y="19.8125" width="3.43925234" height="3.375"></rect>
                    <rect id="Rectangle-path" fill="#3283C8" fill-rule="nonzero" x="2.84859813" y="9.74725581" width="42.1598598" height="23.4108837"></rect>
                    <path d="M45.1778411,34.9717442 L2.84859813,34.9717442 C1.83272897,34.9717442 1.15541121,34.3122326 1.15541121,33.3230698 L1.15541121,9.74725581 C1.15541121,8.75809302 1.83272897,8.0985814 2.84859813,8.0985814 L45.1778411,8.0985814 C46.1937103,8.0985814 46.871028,8.75809302 46.871028,9.74725581 L46.871028,33.1581395 C46.871028,34.1473023 46.0245421,34.9717442 45.1778411,34.9717442 Z M4.54178505,31.6743953 L43.4846542,31.6743953 L43.4846542,11.3959302 L4.54178505,11.3959302 L4.54178505,31.6743953 Z" id="Shape" fill="#183651" fill-rule="nonzero"></path>
                    <rect id="Rectangle-path" fill="#FFFFFF" fill-rule="nonzero" x="9.62134579" y="16.3417442" width="28.6145794" height="10.3866279"></rect>
                    <rect id="Rectangle-path" fill="#183651" fill-rule="nonzero" x="14.1121495" y="19.9302326" width="3.43925234" height="3.34883721"></rect>
                    <rect id="Rectangle-path" fill="#183651" fill-rule="nonzero" x="22.2803738" y="19.9302326" width="3.43925234" height="3.34883721"></rect>
                    <rect id="Rectangle-path" fill="#183651" fill-rule="nonzero" x="30.4485981" y="19.9302326" width="3.43925234" height="3.34883721"></rect>
                    <rect id="Rectangle-path" fill="#183651" fill-rule="nonzero" transform="translate(2.000000, 73.000000) rotate(-450.000000) translate(-2.000000, -73.000000) " x="0.5" y="71.5" width="3" height="3"></rect>
                    <rect id="Rectangle-path" fill="#183651" fill-rule="nonzero" transform="translate(2.000000, 65.000000) rotate(-450.000000) translate(-2.000000, -65.000000) " x="0.5" y="63.5" width="3" height="3"></rect>
                    <rect id="Rectangle-path" fill="#183651" fill-rule="nonzero" transform="translate(2.000000, 56.000000) rotate(-450.000000) translate(-2.000000, -56.000000) " x="0.5" y="54.5" width="3" height="3"></rect>
                    <rect id="Rectangle-path" fill="#183651" fill-rule="nonzero" transform="translate(58.000000, 19.000000) rotate(-450.000000) translate(-58.000000, -19.000000) " x="56.5" y="17.5" width="3" height="3"></rect>
                    <rect id="Rectangle-path" fill="#183651" fill-rule="nonzero" transform="translate(58.000000, 11.000000) rotate(-450.000000) translate(-58.000000, -11.000000) " x="56.5" y="9.5" width="3" height="3"></rect>
                    <rect id="Rectangle-path" fill="#183651" fill-rule="nonzero" transform="translate(58.000000, 2.000000) rotate(-450.000000) translate(-58.000000, -2.000000) " x="56.5" y="0.5" width="3" height="3"></rect>
                    <rect id="Rectangle-path" fill="#183651" fill-rule="nonzero" transform="translate(113.000000, 73.000000) rotate(-450.000000) translate(-113.000000, -73.000000) " x="111.5" y="71.5" width="3" height="3"></rect>
                    <rect id="Rectangle-path" fill="#183651" fill-rule="nonzero" transform="translate(113.000000, 65.000000) rotate(-450.000000) translate(-113.000000, -65.000000) " x="111.5" y="63.5" width="3" height="3"></rect>
                    <rect id="Rectangle-path" fill="#183651" fill-rule="nonzero" transform="translate(113.000000, 56.000000) rotate(-450.000000) translate(-113.000000, -56.000000) " x="111.5" y="54.5" width="3" height="3"></rect>
                    <polygon id="Shape" fill="#FFFFFF" fill-rule="nonzero" transform="translate(19.324752, 59.631639) rotate(-360.000000) translate(-19.324752, -59.631639) " points="15.1161524 79.2632786 23.5333524 79.2632786 23.5333524 51.7959055 28.6495048 51.7959055 19.2423048 40 10 51.7959055 15.1161524 51.7959055"></polygon>
                    <path d="M23.1985672,81.7596493 L14.7815767,81.7596493 C13.7913672,81.7596493 13.1311577,81.0855547 13.1311577,80.0745199 L13.1311577,54.2922761 L9.66521483,54.2922761 C9.0050053,54.2922761 8.50990054,53.9553358 8.17990054,53.2812413 C7.84990054,52.7757239 8.01479578,51.9330522 8.3450053,51.4275348 L17.5873101,39.6318433 C18.2475196,38.7893856 19.5677291,38.7893856 20.2279386,39.6318433 L29.3051386,51.2591716 C29.6351386,51.5961119 29.8002434,52.1016294 29.8002434,52.6073607 C29.8002434,53.6183955 29.1400339,54.29249 28.1498244,54.29249 L24.6838815,54.29249 L24.6838815,80.0747338 C24.8489863,81.0855547 24.023672,81.7596493 23.1985672,81.7596493 Z M16.4317863,78.3893905 L21.5479386,78.3893905 L21.5479386,52.6071468 C21.5479386,51.5961119 22.2081482,50.9220174 23.1983577,50.9220174 L24.8487767,50.9220174 L18.9073101,43.5076194 L13.1311577,50.9220174 L14.7815767,50.9220174 C15.7717863,50.9220174 16.4319958,51.5961119 16.4319958,52.6071468 L16.4319958,78.3893905 L16.4317863,78.3893905 Z" id="Shape" fill="#183651" fill-rule="nonzero" transform="translate(18.900122, 60.379825) rotate(-360.000000) translate(-18.900122, -60.379825) "></path>
                    <polygon id="Shape" fill="#FFFFFF" fill-rule="nonzero" transform="translate(58.324752, 86.131639) rotate(-360.000000) translate(-58.324752, -86.131639) " points="54.1161524 100.263279 62.5333524 100.263279 62.5333524 83.7959055 67.6495048 83.7959055 58.2423048 72 49 83.7959055 54.1161524 83.7959055"></polygon>
                    <path d="M62.1985672,103.759649 L53.7815767,103.759649 C52.7913672,103.759649 52.1311577,103.085555 52.1311577,102.07452 L52.1311577,86.2922761 L48.6652148,86.2922761 C48.0050053,86.2922761 47.5099005,85.9553358 47.1799005,85.2812413 C46.8499005,84.7757239 47.0147958,83.9330522 47.3450053,83.4275348 L56.5873101,71.6318433 C57.2475196,70.7893856 58.5677291,70.7893856 59.2279386,71.6318433 L68.3051386,83.2591716 C68.6351386,83.5961119 68.8002434,84.1016294 68.8002434,84.6073607 C68.8002434,85.6183955 68.1400339,86.29249 67.1498244,86.29249 L63.6838815,86.29249 L63.6838815,102.074734 C63.8489863,103.085555 63.023672,103.759649 62.1985672,103.759649 Z M55.4317863,100.389391 L60.5479386,100.389391 L60.5479386,84.6071468 C60.5479386,83.5961119 61.2081482,82.9220174 62.1983577,82.9220174 L63.8487767,82.9220174 L57.9073101,75.5076194 L52.1311577,82.9220174 L53.7815767,82.9220174 C54.7717863,82.9220174 55.4319958,83.5961119 55.4319958,84.6071468 L55.4319958,110.389391 L55.4317863,100.389391 Z" id="Shape" fill="#183651" fill-rule="nonzero" transform="translate(57.900122, 90.694695) rotate(-360.000000) translate(-57.900122, -90.694695) "></path>
                    <polygon id="Shape" fill="#FFFFFF" fill-rule="nonzero" transform="translate(98.324752, 59.631639) rotate(-360.000000) translate(-98.324752, -59.631639) " points="94.1161524 79.2632786 102.533352 79.2632786 102.533352 51.7959055 107.649505 51.7959055 98.2423048 40 89 51.7959055 94.1161524 51.7959055"></polygon>
                    <path d="M102.198567,81.7596493 L93.7815767,81.7596493 C92.7913672,81.7596493 92.1311577,81.0855547 92.1311577,80.0745199 L92.1311577,54.2922761 L88.6652148,54.2922761 C88.0050053,54.2922761 87.5099005,53.9553358 87.1799005,53.2812413 C86.8499005,52.7757239 87.0147958,51.9330522 87.3450053,51.4275348 L96.5873101,39.6318433 C97.2475196,38.7893856 98.5677291,38.7893856 99.2279386,39.6318433 L108.305139,51.2591716 C108.635139,51.5961119 108.800243,52.1016294 108.800243,52.6073607 C108.800243,53.6183955 108.140034,54.29249 107.149824,54.29249 L103.683881,54.29249 L103.683881,80.0747338 C103.848986,81.0855547 103.023672,81.7596493 102.198567,81.7596493 Z M95.4317863,78.3893905 L100.547939,78.3893905 L100.547939,52.6071468 C100.547939,51.5961119 101.208148,50.9220174 102.198358,50.9220174 L103.848777,50.9220174 L97.9073101,43.5076194 L92.1311577,50.9220174 L93.7815767,50.9220174 C94.7717863,50.9220174 95.4319958,51.5961119 95.4319958,52.6071468 L95.4319958,78.3893905 L95.4317863,78.3893905 Z" id="Shape" fill="#183651" fill-rule="nonzero" transform="translate(97.900122, 60.379825) rotate(-360.000000) translate(-97.900122, -60.379825) "></path>
                </g>
            </g>
        </g>
    </g>
</svg>

<svg width="115" height="104" xmlns="http://www.w3.org/2000/svg"><g fill="none"><circle fill="#E7E7E7" cx="58.922" cy="52.922" r="44.922"/><path fill="#183651" d="M36.849 41.757h42.16v23.411h-42.16z"/><path d="M79.178 66.816h-42.33c-1.015 0-1.693-.66-1.693-1.648V41.757c0-.99.678-1.649 1.694-1.649h42.329c1.016 0 1.693.66 1.693 1.649v23.41c0 .99-.846 1.65-1.693 1.65zM38.542 63.52h38.943V43.406H38.542v20.113z" fill="#183651"/><path fill="#FFF" d="M43.621 48.187h28.615v10.387H43.621z"/><path fill="#183651" d="M48.112 51.721h3.439v3.349h-3.439zm8.168 0h3.439v3.349H56.28zm8.169 0h3.439v3.349h-3.439z"/><path fill="#05B8EE" d="M70.849 9.662h42.16v23.594h-42.16z"/><path d="M113.178 34.917h-42.33c-1.015 0-1.693-.665-1.693-1.662V9.662c0-.997.678-1.662 1.694-1.662h42.329c1.016 0 1.693.665 1.693 1.662v23.593c0 .997-.846 1.662-1.693 1.662zm-40.636-3.323h38.943v-20.27H72.542v20.27z" fill="#183651"/><path fill="#FFF" d="M77.621 16.308h28.615v10.468H77.621z"/><path fill="#183651" d="M82.112 19.813h3.439v3.375h-3.439zm8.168 0h3.439v3.375H90.28zm8.169 0h3.439v3.375h-3.439z"/><path fill="#3283C8" d="M2.849 9.747h42.16v23.411H2.849z"/><path d="M45.178 34.972H2.848c-1.015 0-1.693-.66-1.693-1.649V9.747c0-.989.678-1.648 1.694-1.648h42.329c1.016 0 1.693.66 1.693 1.648v23.411c0 .99-.846 1.814-1.693 1.814zM4.542 31.674h38.943V11.396H4.542v20.278z" fill="#183651"/><path fill="#FFF" d="M9.621 16.342h28.615v10.387H9.621z"/><path fill="#183651" d="M14.112 19.93h3.439v3.349h-3.439zm8.168 0h3.439v3.349H22.28zm8.169 0h3.439v3.349h-3.439zM.5 74.5v-3h3v3zm0-8v-3h3v3zm0-9v-3h3v3zm56-37v-3h3v3zm0-8v-3h3v3zm0-9v-3h3v3zm55 71v-3h3v3zm0-8v-3h3v3zm0-9v-3h3v3z"/><path fill="#FFF" d="M15.116 79.263h8.417V51.796h5.117L19.242 40 10 51.796h5.116z"/><path d="M23.199 81.76h-8.417c-.99 0-1.65-.674-1.65-1.685V54.292H9.664c-.66 0-1.155-.337-1.485-1.01-.33-.506-.165-1.349.165-1.854l9.242-11.796c.66-.843 1.98-.843 2.64 0l9.078 11.627c.33.337.495.843.495 1.348 0 1.011-.66 1.685-1.65 1.685h-3.466v25.783c.165 1.01-.66 1.685-1.485 1.685zm-6.767-3.37h5.116V52.606c0-1.01.66-1.685 1.65-1.685h1.65l-5.94-7.414-5.777 7.414h1.65c.99 0 1.651.674 1.651 1.685V78.39z" fill="#183651"/><path fill="#FFF" d="M54.116 100.263h8.417V83.796h5.117L58.242 72 49 83.796h5.116z"/><path d="M62.199 103.76h-8.417c-.99 0-1.65-.674-1.65-1.685V86.292h-3.467c-.66 0-1.155-.337-1.485-1.01-.33-.506-.165-1.349.165-1.854l9.242-11.796c.66-.843 1.98-.843 2.64 0l9.078 11.627c.33.337.495.843.495 1.348 0 1.011-.66 1.685-1.65 1.685h-3.466v15.783c.165 1.01-.66 1.685-1.485 1.685zm-6.767-3.37h5.116V84.606c0-1.01.66-1.685 1.65-1.685h1.65l-5.94-7.414-5.777 7.414h1.65c.99 0 1.651.674 1.651 1.685v25.782-10z" fill="#183651"/><path fill="#FFF" d="M94.116 79.263h8.417V51.796h5.117L98.242 40 89 51.796h5.116z"/><path d="M102.199 81.76h-8.417c-.99 0-1.65-.674-1.65-1.685V54.292h-3.467c-.66 0-1.155-.337-1.485-1.01-.33-.506-.165-1.349.165-1.854l9.242-11.796c.66-.843 1.98-.843 2.64 0l9.078 11.627c.33.337.495.843.495 1.348 0 1.011-.66 1.685-1.65 1.685h-3.466v25.783c.165 1.01-.66 1.685-1.485 1.685zm-6.767-3.37h5.116V52.606c0-1.01.66-1.685 1.65-1.685h1.65l-5.94-7.414-5.777 7.414h1.65c.99 0 1.651.674 1.651 1.685V78.39z" fill="#183651"/></g></svg>
